X:1
T:Title
%%score ( 1 2 ) ( 3 4 )
L:1/8
Q:1/4=90
M:4/4
K:Eb
V:1 treble nm="Midi_20"
V:2 treble 
V:3 bass nm="Midi_20"
V:4 bass 
V:1
"^Wilton (11 6. 11 6)""^Arthur Henry Mann\n(1850-1929)""^Light of the world!""^Horatio Bonar\n(1808-1889)" B4 G2 F2 | %1
 E4 F4 | G2 B2 A2 c2 | c4 (B2 B2) | e4 (d2 c2) | B6 =A2 | (B6 || B2 | B4) G2 F2 | E4 G4 | %10
 e2 d2 c2 =B2 | =B4 (c2 d2) | e4 (B2 A2) | G6 F2 | E8 |] %15
V:2
 B,4 E2 D2 | C4 D4 | E2 E2 E2 E2 | E4 (E2 F2) | E4 (F2 G2) | F4 E4 | D6 || D2 | E4 (E2 D2) | %9
w: Light of the|world! for|e- ver, e- ver|shin- ing, There|is no *|change in|Thee;|True|light of *|
w: Thou hast a-|risen, but|Thou de- scen- dest|ne- ver; To-|day shines *|as the|past;||All that Thou|
w: Night vi- sits|not Thy|sky, nor storms, nor|sad- ness; *|Day fills up|all its|blue,|Un-|fad- ing *|
w: Light of the|world! un-|dim- ming and un-|set- ting! O|shine each *|mist a-|way;||Ba- nish the|
 C4 (C2 D2) | E2 F2 G2 G2 | F4 (E2 F2) | E4 (E2 F2) | E4 D4 | E8 |] %15
w: Life, all *|joy and health en-|shrin- ing, Thou|canst not *|fade nor|flee.|
w: wast Thou *|art, and shalt be|e- ver, *|Bright- ness from|first to|last.|
w: beau- ty, *|and un- fal- tering|glad- ness, And|love for *|e- ver|new.|
w: fear, the *|false- hood, and the|fret- ting, *|Be our un-|chang- ing|Daay.|
V:3
 G,4 B,2 A,2 | G,4 B,4 | B,2 G,2 A,2 A,2 | A,4 (G,2 B,2) | C4 (=B,2 C2) | D4 C4 | (B,6 || A,2 | %8
 G,4) B,2 A,2 | G,4 (G,2 =B,2) | C2 =B,2 C2 D2 | D4 (C2 _C2) | B,4 (_D2 C2) | B,6 A,2 | G,8 |] %15
V:4
 E,4 E,2 B,,2 | C,4 B,,4 | E,2 _D,2 C,2 A,,2 | E,4 (E,2 D,2) | C,4 (D,2 E,2) | F,6 F,2 | B,,6 || %7
 B,,2 | E,4 (B,,2 B,,2) | C,4 (E,2 D,2) | C,2 D,2 E,2 G,2 | A,4 (A,2 A,2) | G,4 (G,2 A,2) | %13
 B,4 B,,4 | E,8 |] %15

